X:12
T:Aohe Folid Brade's Matroaf
Z: id:dc-seedc-369M
L:/8
L:1/8
K:G Major
dB|Bed ecB|dBB B2E|GAD BDE|G3 EGB|!
A2B cBA|GBd A3 GED|G3 GBA G2:|!
ec|dBc dBg dBG|G2B d2B dBB|GFB dgg ag|g2d fegf|!
ged c2B|eAB dBA|G2F G2A|BGB dBG|!
GBd g2f|edd cAA|BdG FGA|BGF G2:|!

